X: 39962
T: Three Around Three
R: barndance
M: 4/4
K: Gmajor
d2BA G2G2|A2BA G2D2|EDEF G2AB|c2B2 B2A2|
d2BA G2G2|A2BA G2D2|EDEF G2Ac|B2A2 G4:|
|:d2ef gfed|e2e2 e4|d2B2 B2AG|FGAB A4|
d2ef gfed|e2e2 e2d2|efg2 fgaf|g4 g4:|

